X: 20961
Q: "Slow and with feeling."
M: C
L: 1/8
K: C
E2G2 g3e | (fe)(dc) A3G |\
E2G2 (fe)(dc) | A>Bc2 z2c2 |\
(GE)(GA) c2(de) | (ge)(dc) A3G |\
(EG)(Aa) (ge)(dc) | A>Bc2 z2G2 |
(cd)(ef) g3(f/e/) | (fe)(dc) {c}d3G |\
c2(de) (fe)(dc) | {fg}a3 Hg2 z2g2 |\
f2(eg) {g}a3g | (fe)(dc) A3G |\
(E>F)G2 (fe)(dc) | A2{B}c2 z2 |]


